Newaita-dark/apps/16/bittorrent-sync.svg

<?xml version="1.0" encoding="UTF-8"?>
<svg xmlns="http://www.w3.org/2000/svg" xmlns:xlink="http://www.w3.org/1999/xlink" width="16px" height="16px" viewBox="0 0 16 16" version="1.1">
<defs>
<radialGradient id="radial0" gradientUnits="userSpaceOnUse" cx="450.908936" cy="189.579361" fx="450.908936" fy="189.579361" r="21.166656" gradientTransform="matrix(0.0000000870852,-0.0390662,-0.0703192,-0.0000000507693,22.261576,31.797665)">
<stop offset="0" style="stop-color:rgb(0%,0%,0%);stop-opacity:0.313726;"/>
<stop offset="0.222222" style="stop-color:rgb(0%,0%,0%);stop-opacity:0.27451;"/>
<stop offset="1" style="stop-color:rgb(0%,0%,0%);stop-opacity:0;"/>
</radialGradient>
<radialGradient id="radial1" gradientUnits="userSpaceOnUse" cx="450.908936" cy="189.579361" fx="450.908936" fy="189.579361" r="21.166656" gradientTransform="matrix(-0.0000000870852,0.0390662,0.0703192,0.0000000507693,-6.385059,-3.763741)">
<stop offset="0" style="stop-color:rgb(0%,0%,0%);stop-opacity:0.313726;"/>
<stop offset="0.222222" style="stop-color:rgb(0%,0%,0%);stop-opacity:0.27451;"/>
<stop offset="1" style="stop-color:rgb(0%,0%,0%);stop-opacity:0;"/>
</radialGradient>
<radialGradient id="radial2" gradientUnits="userSpaceOnUse" cx="450.908936" cy="189.579361" fx="450.908936" fy="189.579361" r="21.166656" gradientTransform="matrix(-0.0000000870852,-0.0390662,0.0703192,-0.0000000507693,-6.385059,31.797665)">
<stop offset="0" style="stop-color:rgb(0%,0%,0%);stop-opacity:0.313726;"/>
<stop offset="0.222222" style="stop-color:rgb(0%,0%,0%);stop-opacity:0.27451;"/>
<stop offset="1" style="stop-color:rgb(0%,0%,0%);stop-opacity:0;"/>
</radialGradient>
<radialGradient id="radial3" gradientUnits="userSpaceOnUse" cx="450.908936" cy="189.579361" fx="450.908936" fy="189.579361" r="21.166656" gradientTransform="matrix(0.0000000870852,0.0390662,-0.0703192,0.0000000507693,22.261575,-3.763741)">
<stop offset="0" style="stop-color:rgb(0%,0%,0%);stop-opacity:0.313726;"/>
<stop offset="0.222222" style="stop-color:rgb(0%,0%,0%);stop-opacity:0.27451;"/>
<stop offset="1" style="stop-color:rgb(0%,0%,0%);stop-opacity:0;"/>
</radialGradient>
<linearGradient id="linear0" gradientUnits="userSpaceOnUse" x1="255.323059" y1="233.5" x2="255.323044" y2="254.666656" gradientTransform="matrix(0.00668003,0,0,0.031253,6.232693,6.719392)">
<stop offset="0" style="stop-color:rgb(0%,0%,0%);stop-opacity:0.27451;"/>
<stop offset="1" style="stop-color:rgb(0%,0%,0%);stop-opacity:0;"/>
</linearGradient>
<linearGradient id="linear1" gradientUnits="userSpaceOnUse" x1="254" y1="-168.666672" x2="254" y2="233.5" >
<stop offset="0" style="stop-color:rgb(47.450981%,52.549022%,79.607844%);stop-opacity:1;"/>
<stop offset="1" style="stop-color:rgb(36.078432%,41.960785%,75.294119%);stop-opacity:1;"/>
</linearGradient>
<linearGradient id="linear2" gradientUnits="userSpaceOnUse" x1="960" y1="1695.118164" x2="960" y2="175.118134" gradientTransform="matrix(0.00826902,0,0,0.00826902,0,0)">
<stop offset="0" style="stop-color:rgb(14.901961%,77.64706%,85.490197%);stop-opacity:1;"/>
<stop offset="1" style="stop-color:rgb(30.19608%,81.568629%,88.235295%);stop-opacity:1;"/>
</linearGradient>
</defs>
<g id="surface1">
<path style=" stroke:none;fill-rule:nonzero;fill:url(#radial0);" d="M 9.097656 14.015625 L 10.417969 14.015625 L 10.417969 13.355469 L 9.097656 13.355469 Z M 9.097656 14.015625 "/>
<path style=" stroke:none;fill-rule:nonzero;fill:url(#radial1);" d="M 6.78125 14.015625 L 5.457031 14.015625 L 5.457031 14.679688 L 6.78125 14.679688 Z M 6.78125 14.015625 "/>
<path style=" stroke:none;fill-rule:nonzero;fill:url(#radial2);" d="M 6.78125 14.015625 L 5.457031 14.015625 L 5.457031 13.355469 L 6.78125 13.355469 Z M 6.78125 14.015625 "/>
<path style=" stroke:none;fill-rule:nonzero;fill:url(#radial3);" d="M 9.097656 14.015625 L 10.417969 14.015625 L 10.417969 14.679688 L 9.097656 14.679688 Z M 9.097656 14.015625 "/>
<path style=" stroke:none;fill-rule:nonzero;fill:url(#linear0);" d="M 6.78125 13.851562 L 9.097656 13.851562 L 9.097656 14.679688 L 6.78125 14.679688 Z M 6.78125 13.851562 "/>
<path style="fill-rule:nonzero;fill:url(#linear1);stroke-width:3;stroke-linecap:round;stroke-linejoin:miter;stroke:rgb(20%,20%,20%);stroke-opacity:1;stroke-miterlimit:4;" d="M 253.975747 -168.629428 C 365.090136 -168.629428 455.081542 -78.638022 455.081542 32.476367 C 455.081542 143.465768 365.090136 233.457174 253.975747 233.457174 C 142.986345 233.457174 52.869951 143.465768 52.869951 32.476367 C 52.869951 -78.638022 142.986345 -168.629428 253.975747 -168.629428 Z M 253.975747 -168.629428 " transform="matrix(0.031253,0,0,0.031253,0,6.719392)"/>
<path style=" stroke:none;fill-rule:nonzero;fill:rgb(0%,0%,0%);fill-opacity:0.196078;" d="M 7.9375 14.015625 C 4.457031 14.015625 1.652344 11.214844 1.652344 7.734375 C 1.652344 7.710938 1.652344 7.691406 1.652344 7.671875 C 1.6875 11.125 4.476562 13.894531 7.9375 13.894531 C 11.398438 13.894531 14.191406 11.125 14.222656 7.671875 C 14.222656 7.691406 14.222656 7.710938 14.222656 7.734375 C 14.222656 11.214844 11.417969 14.015625 7.9375 14.015625 Z M 7.9375 14.015625 "/>
<path style=" stroke:none;fill-rule:nonzero;fill:rgb(100%,100%,100%);fill-opacity:0.392157;" d="M 7.9375 1.449219 C 4.457031 1.449219 1.652344 4.25 1.652344 7.734375 C 1.652344 7.753906 1.652344 7.773438 1.652344 7.792969 C 1.6875 4.339844 4.476562 1.570312 7.9375 1.570312 C 11.398438 1.570312 14.191406 4.339844 14.222656 7.792969 C 14.222656 7.773438 14.222656 7.753906 14.222656 7.734375 C 14.222656 4.25 11.417969 1.449219 7.9375 1.449219 Z M 7.9375 1.449219 "/>
<path style=" stroke:none;fill-rule:nonzero;fill:rgb(12.941177%,12.941177%,12.941177%);fill-opacity:1;" d="M 7.9375 1.402344 C 4.429688 1.402344 1.605469 4.226562 1.605469 7.734375 C 1.605469 11.238281 4.429688 14.0625 7.9375 14.0625 C 11.445312 14.0625 14.269531 11.238281 14.269531 7.734375 C 14.269531 4.226562 11.445312 1.402344 7.9375 1.402344 Z M 7.9375 1.496094 C 11.394531 1.496094 14.175781 4.277344 14.175781 7.734375 C 14.175781 11.1875 11.394531 13.96875 7.9375 13.96875 C 4.480469 13.96875 1.699219 11.1875 1.699219 7.734375 C 1.699219 4.277344 4.480469 1.496094 7.9375 1.496094 Z M 7.9375 1.496094 "/>
<path style=" stroke:none;fill-rule:nonzero;fill:url(#linear2);" d="M 7.917969 3.140625 C 7.140625 3.140625 6.347656 3.34375 5.621094 3.761719 C 3.800781 4.816406 2.964844 6.90625 3.429688 8.847656 C 3.515625 9.371094 4.539062 9.164062 4.339844 8.324219 C 4.117188 6.882812 4.777344 5.398438 6.117188 4.621094 C 7.460938 3.847656 9.078125 4.019531 10.214844 4.933594 C 10.839844 5.523438 11.535156 4.742188 11.121094 4.40625 C 10.25 3.578125 9.097656 3.132812 7.917969 3.140625 Z M 12.089844 6.414062 C 11.785156 6.40625 11.410156 6.6875 11.539062 7.222656 C 11.757812 8.664062 11.097656 10.148438 9.757812 10.925781 C 8.417969 11.699219 6.796875 11.527344 5.664062 10.617188 C 5.035156 10.023438 4.339844 10.804688 4.753906 11.140625 C 6.203125 12.515625 8.429688 12.835938 10.253906 11.785156 C 12.078125 10.730469 12.914062 8.640625 12.445312 6.699219 C 12.414062 6.511719 12.265625 6.417969 12.089844 6.414062 Z M 12.089844 6.414062 "/>
<path style=" stroke:none;fill-rule:nonzero;fill:rgb(100%,100%,100%);fill-opacity:0.392157;" d="M 7.917969 3.140625 C 7.140625 3.140625 6.347656 3.34375 5.621094 3.761719 C 4.097656 4.644531 3.261719 6.25 3.304688 7.890625 C 3.34375 6.335938 4.171875 4.839844 5.621094 4 C 6.347656 3.582031 7.140625 3.378906 7.917969 3.375 C 9.097656 3.371094 10.25 3.816406 11.121094 4.644531 C 11.171875 4.683594 11.207031 4.734375 11.226562 4.785156 C 11.269531 4.652344 11.246094 4.507812 11.121094 4.40625 C 10.25 3.578125 9.097656 3.132812 7.917969 3.140625 Z M 12.078125 6.414062 C 11.789062 6.414062 11.453125 6.664062 11.519531 7.136719 C 11.574219 6.8125 11.851562 6.644531 12.089844 6.648438 C 12.265625 6.652344 12.414062 6.746094 12.445312 6.9375 C 12.523438 7.253906 12.5625 7.574219 12.570312 7.894531 C 12.582031 7.496094 12.539062 7.09375 12.445312 6.699219 C 12.414062 6.511719 12.265625 6.417969 12.089844 6.414062 C 12.085938 6.414062 12.082031 6.414062 12.078125 6.414062 Z M 4.300781 7.886719 C 4.292969 8.113281 4.304688 8.335938 4.339844 8.5625 C 4.347656 8.589844 4.351562 8.621094 4.355469 8.648438 C 4.371094 8.550781 4.367188 8.445312 4.339844 8.324219 C 4.316406 8.179688 4.304688 8.035156 4.300781 7.886719 Z M 11.578125 7.894531 C 11.539062 9.109375 10.890625 10.269531 9.757812 10.925781 C 8.417969 11.699219 6.796875 11.527344 5.664062 10.617188 C 5.113281 10.09375 4.507812 10.636719 4.652344 11 C 4.753906 10.695312 5.226562 10.4375 5.664062 10.851562 C 6.796875 11.765625 8.417969 11.9375 9.757812 11.160156 C 10.964844 10.464844 11.621094 9.191406 11.578125 7.894531 Z M 11.578125 7.894531 "/>
<path style=" stroke:none;fill-rule:nonzero;fill:rgb(0%,0%,0%);fill-opacity:0.235294;" d="M 7.90625 4.144531 C 7.300781 4.148438 6.683594 4.308594 6.117188 4.632812 C 4.898438 5.339844 4.242188 6.636719 4.300781 7.949219 C 4.355469 6.753906 5 5.609375 6.117188 4.964844 C 7.460938 4.191406 9.078125 4.363281 10.214844 5.273438 C 10.785156 5.816406 11.414062 5.210938 11.203125 4.84375 C 11.070312 5.128906 10.628906 5.332031 10.214844 4.941406 C 9.558594 4.414062 8.738281 4.136719 7.90625 4.144531 Z M 11.53125 7.199219 C 11.503906 7.304688 11.503906 7.425781 11.539062 7.566406 C 11.558594 7.695312 11.570312 7.824219 11.574219 7.953125 C 11.585938 7.714844 11.574219 7.472656 11.539062 7.234375 C 11.535156 7.222656 11.53125 7.210938 11.53125 7.199219 Z M 3.304688 7.949219 C 3.292969 8.359375 3.332031 8.777344 3.429688 9.191406 C 3.511719 9.707031 4.511719 9.511719 4.347656 8.703125 C 4.222656 9.222656 3.5 9.296875 3.429688 8.859375 C 3.359375 8.558594 3.316406 8.253906 3.304688 7.949219 Z M 12.570312 7.953125 C 12.515625 9.492188 11.691406 10.964844 10.253906 11.796875 C 8.429688 12.847656 6.203125 12.527344 4.753906 11.152344 C 4.71875 11.121094 4.691406 11.089844 4.671875 11.054688 C 4.601562 11.203125 4.613281 11.367188 4.753906 11.480469 C 6.203125 12.859375 8.429688 13.179688 10.253906 12.125 C 11.792969 11.238281 12.628906 9.609375 12.570312 7.953125 Z M 12.570312 7.953125 "/>
<path style="fill:none;stroke-width:11.338583;stroke-linecap:round;stroke-linejoin:round;stroke:rgb(12.941177%,12.941177%,12.941177%);stroke-opacity:1;stroke-miterlimit:4;" d="M 957.546404 379.80627 C 863.539629 379.80627 767.64327 404.370855 679.77764 454.917211 C 459.64117 582.464093 358.548456 835.195877 414.763563 1069.976619 C 425.156272 1133.277664 548.923987 1108.240683 524.831798 1006.675574 C 497.905235 832.361502 577.740135 652.851076 739.771914 558.8443 C 902.276089 465.30992 1097.847974 486.095338 1235.315169 596.635969 C 1310.898506 667.967743 1394.984969 573.488572 1344.911008 532.862528 C 1239.566732 432.714606 1100.209954 378.861478 957.546404 379.80627 Z M 1462.065181 775.673999 C 1425.218304 774.729207 1379.868302 808.741709 1395.457365 873.459942 C 1421.911533 1047.774013 1342.076633 1227.28444 1180.044854 1321.291215 C 1018.013074 1414.825595 821.968793 1394.040177 684.973994 1283.971942 C 608.918261 1212.167772 524.831798 1306.646944 574.905759 1347.272987 C 750.164623 1513.55633 1019.430262 1552.29279 1240.039128 1425.218304 C 1460.647993 1297.671422 1561.740707 1044.939638 1505.053204 810.158897 C 1501.274037 787.483896 1483.322995 776.146395 1462.065181 775.673999 Z M 1462.065181 775.673999 " transform="matrix(0.00826902,0,0,0.00826902,0,0)"/>
</g>
</svg>

<svg xmlns="http://www.w3.org/2000/svg" width="16pt" height="16pt" viewBox="0 0 16 16"><defs><radialGradient id="a" gradientUnits="userSpaceOnUse" cx="450.909" cy="189.579" fx="450.909" fy="189.579" r="21.167" gradientTransform="matrix(0 -.03907 -.07032 0 22.262 31.798)"><stop offset="0" stop-opacity=".314"/><stop offset=".222" stop-opacity=".275"/><stop offset="1" stop-opacity="0"/></radialGradient><radialGradient id="b" gradientUnits="userSpaceOnUse" cx="450.909" cy="189.579" fx="450.909" fy="189.579" r="21.167" gradientTransform="matrix(0 .03907 .07032 0 -6.385 -3.764)"><stop offset="0" stop-opacity=".314"/><stop offset=".222" stop-opacity=".275"/><stop offset="1" stop-opacity="0"/></radialGradient><radialGradient id="c" gradientUnits="userSpaceOnUse" cx="450.909" cy="189.579" fx="450.909" fy="189.579" r="21.167" gradientTransform="matrix(0 -.03907 .07032 0 -6.385 31.798)"><stop offset="0" stop-opacity=".314"/><stop offset=".222" stop-opacity=".275"/><stop offset="1" stop-opacity="0"/></radialGradient><radialGradient id="d" gradientUnits="userSpaceOnUse" cx="450.909" cy="189.579" fx="450.909" fy="189.579" r="21.167" gradientTransform="matrix(0 .03907 -.07032 0 22.262 -3.764)"><stop offset="0" stop-opacity=".314"/><stop offset=".222" stop-opacity=".275"/><stop offset="1" stop-opacity="0"/></radialGradient><linearGradient id="e" gradientUnits="userSpaceOnUse" x1="255.323" y1="233.5" x2="255.323" y2="254.667" gradientTransform="matrix(.00668 0 0 .03125 6.233 6.72)"><stop offset="0" stop-opacity=".275"/><stop offset="1" stop-opacity="0"/></linearGradient><linearGradient id="f" gradientUnits="userSpaceOnUse" x1="254" y1="-168.667" x2="254" y2="233.5"><stop offset="0" stop-color="#7986cb"/><stop offset="1" stop-color="#5c6bc0"/></linearGradient><linearGradient id="g" gradientUnits="userSpaceOnUse" x1="960" y1="1695.118" x2="960" y2="175.118" gradientTransform="rotate(.882) scale(.00827)"><stop offset="0" stop-color="#26c6da"/><stop offset="1" stop-color="#4dd0e1"/></linearGradient></defs><path d="M9.098 14.016h1.32v-.66h-1.32zm0 0" fill="url(#a)"/><path d="M6.781 14.016H5.457v.664h1.324zm0 0" fill="url(#b)"/><path d="M6.781 14.016H5.457v-.66h1.324zm0 0" fill="url(#c)"/><path d="M9.098 14.016h1.32v.664h-1.32zm0 0" fill="url(#d)"/><path d="M6.781 13.852h2.317v.828H6.78zm0 0" fill="url(#e)"/><path d="M253.976-168.63c111.114 0 201.106 89.992 201.106 201.106 0 110.99-89.992 200.981-201.106 200.981-110.99 0-201.106-89.991-201.106-200.98 0-111.115 90.116-201.106 201.106-201.106zm0 0" transform="matrix(.03125 0 0 .03125 0 6.72)" fill="url(#f)" stroke-width="3" stroke-linecap="round" stroke="#333"/><path d="M7.938 14.016a6.27 6.27 0 0 1-6.286-6.282v-.062a6.273 6.273 0 0 0 6.285 6.223 6.27 6.27 0 0 0 6.286-6.223v.062a6.27 6.27 0 0 1-6.286 6.282zm0 0" fill-opacity=".196"/><path d="M7.938 1.45a6.27 6.27 0 0 0-6.286 6.284v.059A6.273 6.273 0 0 1 7.937 1.57a6.27 6.27 0 0 1 6.286 6.223v-.059A6.27 6.27 0 0 0 7.937 1.45zm0 0" fill="#fff" fill-opacity=".392"/><path d="M7.938 1.402a6.318 6.318 0 0 0-6.333 6.332 6.318 6.318 0 0 0 6.332 6.329 6.318 6.318 0 0 0 6.333-6.329 6.318 6.318 0 0 0-6.332-6.332zm0 .094a6.223 6.223 0 0 1 6.238 6.238 6.222 6.222 0 0 1-6.239 6.235A6.222 6.222 0 0 1 1.7 7.734a6.223 6.223 0 0 1 6.239-6.238zm0 0" fill="#212121"/><path d="M7.918 3.14c-.777 0-1.57.204-2.297.622A4.632 4.632 0 0 0 3.43 8.848c.086.523 1.11.316.91-.524a3.634 3.634 0 0 1 1.777-3.703 3.633 3.633 0 0 1 4.098.313c.625.59 1.32-.192.906-.528a4.605 4.605 0 0 0-3.203-1.265zm4.172 3.274c-.305-.008-.68.274-.55.809a3.643 3.643 0 0 1-1.782 3.703 3.633 3.633 0 0 1-4.094-.309c-.629-.594-1.324.188-.91.524a4.627 4.627 0 0 0 5.5.644A4.621 4.621 0 0 0 12.445 6.7c-.03-.187-.18-.281-.355-.285zm0 0" fill="url(#g)"/><path d="M7.918 3.14c-.777 0-1.57.204-2.297.622A4.626 4.626 0 0 0 3.305 7.89 4.627 4.627 0 0 1 5.62 4a4.65 4.65 0 0 1 2.297-.625 4.627 4.627 0 0 1 3.203 1.27c.05.039.086.09.106.14a.335.335 0 0 0-.106-.379 4.605 4.605 0 0 0-3.203-1.265zm4.16 3.274c-.289 0-.625.25-.558.723a.577.577 0 0 1 .57-.489c.176.004.324.098.355.29.078.316.117.636.125.957.012-.399-.03-.801-.125-1.196-.03-.187-.18-.281-.355-.285h-.012zM4.301 7.887c-.008.226.004.449.039.676.008.027.012.058.015.085a.845.845 0 0 0-.015-.324 3.252 3.252 0 0 1-.04-.437zm7.277.008a3.63 3.63 0 0 1-1.82 3.03 3.633 3.633 0 0 1-4.094-.308c-.55-.523-1.156.02-1.012.383.102-.305.575-.563 1.012-.148a3.62 3.62 0 0 0 4.094.308 3.624 3.624 0 0 0 1.82-3.265zm0 0" fill="#fff" fill-opacity=".392"/><path d="M7.906 4.145A3.641 3.641 0 0 0 4.301 7.95a3.63 3.63 0 0 1 1.816-2.985 3.64 3.64 0 0 1 4.098.308c.57.543 1.2-.062.988-.43-.133.286-.574.489-.988.098a3.636 3.636 0 0 0-2.309-.796zm3.625 3.054a.736.736 0 0 0 .008.367c.02.13.031.258.035.387.012-.238 0-.48-.035-.719-.004-.011-.008-.023-.008-.035zm-8.226.75c-.012.41.027.828.125 1.242.082.516 1.082.32.918-.488-.125.52-.848.594-.918.156-.07-.3-.114-.605-.125-.91zm9.265.004a4.622 4.622 0 0 1-2.316 3.844 4.627 4.627 0 0 1-5.5-.645.377.377 0 0 1-.082-.097c-.07.148-.059.312.082.425a4.615 4.615 0 0 0 5.5.645 4.618 4.618 0 0 0 2.316-4.172zm0 0" fill-opacity=".235"/><path d="M7.918 3.14c-.777 0-1.57.204-2.297.622A4.632 4.632 0 0 0 3.43 8.848c.086.523 1.11.316.91-.524a3.634 3.634 0 0 1 1.777-3.703 3.633 3.633 0 0 1 4.098.313c.625.59 1.32-.192.906-.528a4.605 4.605 0 0 0-3.203-1.265zm4.172 3.274c-.305-.008-.68.274-.55.809a3.643 3.643 0 0 1-1.782 3.703 3.633 3.633 0 0 1-4.094-.309c-.629-.594-1.324.188-.91.524a4.627 4.627 0 0 0 5.5.644A4.621 4.621 0 0 0 12.445 6.7c-.03-.187-.18-.281-.355-.285zm0 0" fill="none" stroke-width=".09377353" stroke-linecap="round" stroke-linejoin="round" stroke="#212121"/></svg>
